svgs/regular/cars.svg

<svg xmlns="http://www.w3.org/2000/svg" viewBox="0 0 640 512"><!-- Font Awesome Pro 6.0.0-alpha2 by @fontawesome - https://fontawesome.com License - https://fontawesome.com/license (Commercial License) --><path d="M88 200C88 213.254 98.746 224 112 224S136 213.254 136 200C136 186.744 125.254 176 112 176S88 186.744 88 200ZM244.842 240H48V200C48 173.533 69.533 152 96 152H293.631C311.764 136.893 334.787 128 359.609 128H382.191C380.873 126.863 379.818 125.449 378.441 124.383L346.625 44.84C335.721 17.596 309.725 0 280.393 0H135.609C106.277 0 80.281 17.596 69.381 44.828L37.561 124.383C14.879 141.957 0 169.152 0 200V320C0 337.672 14.326 352 32 352S64 337.672 64 320V288H214.854C220.607 279.715 227.113 271.891 234.844 265L244.842 240ZM113.943 62.664C117.508 53.76 126.012 48 135.609 48H280.393C289.99 48 298.494 53.76 302.059 62.664L318.592 104H97.41L113.943 62.664ZM336 336C322.746 336 312 346.744 312 360C312 373.254 322.746 384 336 384S360 373.254 360 360C360 346.744 349.254 336 336 336ZM528 336C514.746 336 504 346.744 504 360C504 373.254 514.746 384 528 384S552 373.254 552 360C552 346.744 541.254 336 528 336ZM602.441 284.383L570.625 204.84C559.721 177.596 533.725 160 504.393 160H359.609C330.277 160 304.281 177.596 293.381 204.828L261.561 284.383C238.879 301.957 224 329.152 224 360V480C224 497.672 238.326 512 256 512S288 497.672 288 480V448H576V480C576 497.672 590.326 512 608 512S640 497.672 640 480V360C640 329.152 625.121 301.957 602.441 284.383ZM337.943 222.664C341.508 213.76 350.012 208 359.609 208H504.393C513.99 208 522.494 213.76 526.059 222.664L542.592 264H321.41L337.943 222.664ZM592 400H272V360C272 333.533 293.533 312 320 312H544C570.467 312 592 333.533 592 360V400Z"/></svg>

<svg xmlns="http://www.w3.org/2000/svg" viewBox="0 0 640 512"><!--! Font Awesome Pro 6.0.0-alpha3 by @fontawesome - https://fontawesome.com License - https://fontawesome.com/license (Commercial License) --><path d="M88 200C88 213.3 98.75 224 112 224s24-10.75 24-24c0-13.26-10.75-24-24-24S88 186.7 88 200zM244.8 240H48V200c0-26.47 21.53-48 48-48h197.6C311.8 136.9 334.8 128 359.6 128h22.58c-1.318-1.137-2.373-2.551-3.75-3.617l-31.82-79.54C335.7 17.6 309.7 0 280.4 0H135.6C106.3 0 80.28 17.6 69.38 44.83l-31.82 79.55C14.88 141.1 0 169.2 0 200V320c0 17.67 14.33 32 32 32s32-14.33 32-32V288h150.9C220.6 279.7 227.1 271.9 234.8 265L244.8 240zM113.9 62.66C117.5 53.76 126 48 135.6 48h144.8c9.598 0 18.1 5.76 21.67 14.66L318.6 104H97.41L113.9 62.66zM336 336c-13.25 0-24 10.74-24 24c0 13.25 10.75 24 24 24s24-10.75 24-24C360 346.7 349.3 336 336 336zM528 336c-13.25 0-24 10.74-24 24c0 13.25 10.75 24 24 24s24-10.75 24-24C552 346.7 541.3 336 528 336zM602.4 284.4l-31.82-79.54C559.7 177.6 533.7 160 504.4 160H359.6c-29.33 0-55.33 17.6-66.23 44.83l-31.82 79.55C238.9 301.1 224 329.2 224 360V480c0 17.67 14.33 32 32 32s32-14.33 32-32v-32h288v32c0 17.67 14.33 32 32 32s32-14.33 32-32v-120C640 329.2 625.1 301.1 602.4 284.4zM337.9 222.7C341.5 213.8 350 208 359.6 208h144.8c9.598 0 18.1 5.76 21.67 14.66L542.6 264h-221.2L337.9 222.7zM592 400h-320v-40c0-26.47 21.53-48 48-48h224c26.47 0 48 21.53 48 48V400z"/></svg>
